X:65
T:The Moon and Seven Stars
T:Lucky Seven
O:Scotland
Z:Transcriptions by Jack Campin, July 1999.
R:jig
M:6/8
L:1/8
K:D
d2A A2F | GAB A3 | Bcd efg | fed cBA |
d2A A2F | GAB A3 | Bcd cde | Adc d3 ::
e2A A2f | efg f3 | efg fed | cdB cBA |
BGB AFA | BGB AFA | Bcd cde | Adc d3 :|
